packages/core/src/svgs/tokens/branded/NEBO.svg

<svg width="24" height="24" viewBox="0 0 24 24" fill="none" xmlns="http://www.w3.org/2000/svg">
<path d="M21.9956 2V11.4957C21.9827 14.2759 21.0603 17.0175 19.0089 19.0754C18.0842 20.0025 16.9859 20.7379 15.7765 21.2399C14.5672 21.7417 13.2706 22 11.9614 22C10.652 22 9.3556 21.7417 8.14621 21.2399C6.93686 20.7379 5.83843 20.0025 4.9138 19.0754C3.60455 17.7591 2.6876 16.1044 2.26562 14.2966C1.84365 12.4887 1.93333 10.599 2.5246 8.83932C3.11589 7.07948 4.18544 5.51906 5.61345 4.33277C7.04144 3.14648 8.77153 2.38116 10.6099 2.12257C11.2034 2.04516 11.8485 2 12.3774 2H21.9956ZM21.3505 2.64508H12.3774C11.8291 2.61928 11.255 2.70314 10.7002 2.77409C8.98412 3.01652 7.36933 3.73158 6.03644 4.83933C4.70354 5.94706 3.70513 7.40377 3.15284 9.04659C2.60057 10.6894 2.51623 12.4533 2.90924 14.1412C3.30226 15.8293 4.15714 17.3745 5.37826 18.6044C6.24126 19.4705 7.26672 20.1576 8.39584 20.6264C9.52494 21.0952 10.7356 21.3367 11.9581 21.3367C13.1808 21.3367 14.3912 21.0952 15.5204 20.6264C16.6495 20.1576 17.675 19.4705 18.5379 18.6044C20.4925 16.6498 21.3376 14.1275 21.3505 11.4957V2.64508Z" fill="white"/>
<path d="M19.95 14.5791C19.517 15.8979 18.7618 17.0878 17.7531 18.0413C16.7441 18.9947 15.5135 19.6815 14.1724 20.0395C12.8312 20.3976 11.4221 20.4155 10.0724 20.0917C8.72251 19.7679 7.47477 19.1126 6.44201 18.1851L8.87399 15.7467C11.7124 18.198 16.473 17.682 19.95 14.5791ZM9.41578 4.06426C6.30655 7.51545 5.79693 12.2569 8.22245 15.0952L5.78403 17.5336C4.86109 16.5003 4.21031 15.2533 3.89054 13.9051C3.57078 12.557 3.59212 11.1505 3.95266 9.81272C4.31318 8.47498 5.00154 7.2482 5.95543 6.24338C6.90932 5.23856 8.09865 4.48739 9.41578 4.05781V4.06426ZM20.3629 8.30246C20.3694 8.29601 20.3629 8.30891 20.3629 8.30246V12.76C20.1888 12.9729 19.9308 13.276 19.7243 13.4696C16.5763 16.624 12.1123 17.2305 9.53846 15.0758L12.293 12.3213C13.8088 13.289 16.6407 12.3794 18.905 10.1151L19.105 9.91523C19.3243 9.68298 19.5372 9.43778 19.7243 9.19906L19.8275 9.07006H19.834L19.8533 9.03785L19.8919 8.99269L19.9114 8.96695C20.079 8.7475 20.2339 8.51534 20.3694 8.29601L20.3629 8.30246ZM15.628 3.6514C15.3828 3.80623 15.1378 3.98039 14.8926 4.16747L14.7765 4.26423C14.5313 4.45777 14.2926 4.66419 14.0605 4.88351L13.854 5.07703C11.5962 7.33483 10.6866 10.1603 11.6414 11.6826L8.89335 14.4243C6.76456 11.8505 7.37739 7.41224 10.5189 4.27069C10.7125 4.07071 11.2414 3.6385 11.2414 3.6385L15.628 3.6514ZM20.3887 3.63205V5.98661C20.274 6.38755 20.1206 6.77643 19.9308 7.14776C19.6821 7.63925 19.3838 8.104 19.0405 8.53469C18.847 8.77986 18.647 9.02491 18.4277 9.25716L18.2276 9.4572C17.2728 10.4569 16.0814 11.2002 14.7636 11.6182C13.7702 11.8956 13.009 11.7794 12.6026 11.373C12.2027 10.9731 12.0865 10.2119 12.3639 9.212C12.7825 7.8944 13.5256 6.70317 14.5249 5.74793L14.7249 5.55441C15.3535 4.95614 16.0636 4.45007 16.8343 4.05136C17.1698 3.88364 17.5052 3.74171 17.8277 3.6385H17.8407L20.4016 3.63205H20.3887Z" fill="url(#paint0_linear_364_10310)"/>
<defs>
<linearGradient id="paint0_linear_364_10310" x1="19.5632" y1="4.23226" x2="5.84877" y2="18.3725" gradientUnits="userSpaceOnUse">
<stop stop-color="#49FDFF"/>
<stop offset="1" stop-color="#00AFAD"/>
</linearGradient>
</defs>
</svg>

<svg xmlns="http://www.w3.org/2000/svg" width="24" height="24" fill="none" viewBox="0 0 24 24">
    <path fill="#fff" d="M21.996 2v9.496c-.013 2.78-.936 5.521-2.987 7.58a9.956 9.956 0 0 1-14.095 0A10 10 0 0 1 10.61 2.122 14 14 0 0 1 12.377 2zm-.645.645h-8.974c-.548-.026-1.122.058-1.677.13a9.34 9.34 0 0 0-5.322 15.83 9.287 9.287 0 0 0 13.16 0c1.954-1.955 2.8-4.478 2.813-7.11z"/>
    <path fill="url(#NEBO__a)" d="M19.95 14.58a8.348 8.348 0 0 1-13.508 3.605l2.432-2.438c2.838 2.451 7.599 1.935 11.076-1.168M9.416 4.063c-3.11 3.451-3.62 8.193-1.194 11.031l-2.438 2.439A8.334 8.334 0 0 1 9.416 4.058zm10.947 4.238c.006-.006 0 .007 0 0v4.458a8 8 0 0 1-.639.71c-3.148 3.154-7.612 3.76-10.186 1.606l2.755-2.755c1.516.968 4.348.058 6.612-2.206l.2-.2c.22-.232.432-.477.62-.716l.102-.129h.007l.02-.032.038-.045.02-.026a9 9 0 0 0 .457-.671zm-4.735-4.65q-.367.233-.735.515l-.117.097q-.367.29-.716.62l-.206.193c-2.258 2.258-3.167 5.083-2.213 6.606l-2.748 2.741C6.765 11.851 7.377 7.412 10.52 4.271c.194-.2.722-.632.722-.632zm4.76-.02v2.355c-.114.4-.267.79-.457 1.16a8 8 0 0 1-.89 1.388c-.194.245-.394.49-.613.722l-.2.2a8.2 8.2 0 0 1-3.464 2.161c-.994.278-1.755.161-2.161-.245-.4-.4-.517-1.161-.24-2.161a8.25 8.25 0 0 1 2.162-3.464l.2-.194a9.2 9.2 0 0 1 2.11-1.503c.335-.167.67-.31.993-.413h.013l2.56-.006z"/>
    <defs>
        <linearGradient id="NEBO__a" x1="19.563" x2="5.849" y1="4.232" y2="18.372" gradientUnits="userSpaceOnUse">
            <stop stop-color="#49FDFF"/>
            <stop offset="1" stop-color="#00AFAD"/>
        </linearGradient>
    </defs>
</svg>
